public/assets/img/svg-icons/youtube-music-2.svg

<svg viewBox="0 0 500 500" xmlns="http://www.w3.org/2000/svg"><path d="m202.731 322.259v-144.501l125.163 72.258-125.164 72.244zm47.269-199.381c-70.208 0-127.122 56.914-127.122 127.122s56.914 127.122 127.122 127.122 127.122-56.914 127.122-127.122c-.108-70.157-56.95-127.005-127.106-127.122zm0 272.113c-80.076 0-144.991-64.915-144.991-144.991s64.915-144.991 144.991-144.991 144.991 64.915 144.991 144.991v.016c0 80.077-64.915 144.991-144.991 144.991h-.016zm0-389.926c-135.273 0-244.935 109.662-244.935 244.935s109.662 244.935 244.935 244.935 244.935-109.662 244.935-244.935c-.05-135.256-109.679-244.886-244.919-244.935z" fill="#fff"/></svg>

<svg xmlns="http://www.w3.org/2000/svg" viewBox="0 0 500 500">
  <path fill="#fff" fill-rule="nonzero" d="M202.731 322.259V177.758l125.163 72.258L202.73 322.26ZM250 122.878c-70.208 0-127.122 56.914-127.122 127.122S179.792 377.122 250 377.122 377.122 320.208 377.122 250c-.108-70.157-56.95-127.005-127.106-127.122H250Zm0 272.113c-80.076 0-144.991-64.915-144.991-144.991 0-80.076 64.915-144.991 144.991-144.991 80.076 0 144.991 64.915 144.991 144.991v.016c0 80.077-64.915 144.991-144.991 144.991h-.016l.016-.016Zm0-389.926C114.727 5.065 5.065 114.727 5.065 250S114.727 494.935 250 494.935 494.935 385.273 494.935 250C494.885 114.744 385.256 5.114 250.016 5.065H250Z"/>
</svg>
